X:1
T:Cantate Domino (an)
T:Cantate Domino (an)
T:Anonymus
C:Anonymus
%%score [ 1 [ 2 3 ] 4 ]
L:1/8
Q:1/4=120
M:2/2
K:C
V:1 treble nm="Soprano" snm="S"
V:2 treble-8 nm="Tenor 1" snm="T 1"
V:3 treble-8 nm="Tenor 2" snm="T 2"
V:4 bass nm="Bass" snm="B"
V:1
 B8 | G4 A4 | B6 B2 | B4 c4 | B2 A4 G2 | F4 E4 | z2 A4 A2 | G2 E2 F2 G2 | E2 A4 G2 | A2 c4 BA | %10
w: Can-|ta- te|Do- mi-|no can-|ti- cum no-|* vum:|qui- a|mi- ra- bi- li-|a fe- *||
 G8 | z8 | z8 | z8 | z8 | z8 | z8 | z8 | z8 | z2 A4 A2 | G2 E2 F2 G2 | E2 A4 G2 | A4 z4 | %23
w: cit,|||||||||qui- a|mi- ra- bi- li-|a fe- *|cit.|
 G4 c2 c2 | B4 A2 c2- | c2 B2 G4 | A4 B4 | z2 G2 G2 G2 | A2 G2 E2 F2 | G2 E2 A4 | G4 B4- | %31
w: Sal- va- vit|si- bi dex-|* te- ra|e- ius,|et bra- chi-|um san- ctum e-|ius, et bra-|chi- um|
 B2 c2 d4 | G2 A3 B c2- | c2 BA G3 A | B2 c4 B2 | A4 G3 E | F2 E4 A2- |"^#" A2 G2 A4- | A4 z4 | %39
w: _ san- *||* * * ctum _|_ e- *|||* * ius.|_|
 z8 | z8 | z8 | A6 A2 | A4 G4 | A4 B4 | c8 | c6 B2 | A4 G4 | F8- | F8 | E8 | z4 z2 D2- | D2 D2 A4 | %53
w: |||No- tum|fe- cit|Do- mi-|nus|sa- lu-|ta- re|su-||um:|in|_ con- spec-|
 A4 c4 | B4 G4 | z8 | A6 A2 | G4 E2 E2 | E2 F2 G2 A2- | AGFE F4 | E4 G4 | A2 B2 c4 | B2 A2 d4 | %63
w: tu Gen-|ti- um.||Re- ve-|la- vit iu-|sti- ti- am su-||am, iu-|sti- ti- am|_ _ su-|
 c2 B3 A c2- | c2 BA c2 B2- |"^#" BA A4 G2 | A4 z2 c2- | c2 A2 B4 | c4 B4 | G4 G2 G2 | A4 c4 | %71
w: |||am. Re-|* cor- da-|tus est|mi- se- ri-|cor- di-|
 B4 A4 | G8 | z4 E4 | E2 E2 F4 | A4 G4 | F4 E4 | z2 D2 G2 G2 | G4 G4 | F4 G4 | E3 F G2 A2- | %81
w: ae su-|ae,|mi-|se- ri- cor-|di- ae|su- ae,|et ve- ri-|ta- tis|su- ae|do- * * mu-|
 AG G4 F2 | G8 | z8 | z8 | z8 | z8 | z8 | z8 | z8 | z8 | z8 | z8 | E4 E2 E2- | EDEF G2 E2 | %95
w: * i Is- ra-|el.|||||||||||Ju- bi- la-|* * * * * te|
 G3 A B2 c2- | c2 BA G2 c2- | c2 B2 c4 | B4 z2 G2 | A4 B2 G2 | A2 A2 B4 | E3 F G2 A2- | AG G4 F2 | %103
w: De- * * *|* * * o o-|* mnis ter-|ra: can-|ta- te, et|ex- sul- ta-|te, _ _ et|_ _ psal- li-|
 G8 | z8 | z8 | z8 | z8 | z8 | z8 | z8 | z8 | z8 | z8 | z8 | z2 A2 d2 d2 | c2 A2 B2 B2 | A4 z2 E2 | %118
w: te,||||||||||||et vo- ce|tu- bae cor- ne-|ae, et|
 A2 A2 G2 E2 | F2 F2 E2 c2- | c2 B2 A4 | G4 z4 | c6 c2 | c4 c4 | B6 B2 | B4 A4 | G4 E4 | F4 F4 | %128
w: vo- ce tu- bae|cor- ne- ae, cor-|* * ne-|ae.|Ju- bi-|la- te|in- con-|spe- ctu|re- gis|Do- mi-|
 E4 G4- | G4 G4 | A4 B4 | c8 | B8 | z4 G4 | d4 d4 | c4 B4 | A8 | B8 | G8 | G4 G4 | A8 | G8 | %142
w: ni: mo-|* ve-|a- tur|ma-|re,|et|ple- ni-|tu- do|e-|ius:|or-|bis ter-|ra-|rum|
 c6 c2 | c4 B4 | A4 G4 | A8 | B8 | z4 E4 | D2 G4 A2 | B2 c4 B2 | A2 G2 A4 | G8 || z4 B4- | %153
w: et qui|ha- bi-|tant in|e-|o,|et|qui ha- bi-|tant in e-||o.|Flu-|
 B2 B2 A4 | c8 | B4 A4- | A2 GF E4 | z2 E4 E2 | G4 F4 | E6 E2 | G3 A B4 | z2 B4 A2 | B2 G2 A2 B2 | %163
w: * mi- na|plau-|dent ma-|* * * nu,|si- mul|mon- tes|ex- sul-|ta- * bunt|a con-|spe- ctu Do- mi-|
 E2 B4 A2 | B2 c2 B2 G2 | A2 c2 B2 c2- | c2 BA G4- | G4 z4 | z8 | z8 | z8 | z8 | z8 | z8 | z8 | %175
w: ni: quo- ni-|am ve- nit ju-|di- ca- re ter-|* * * ram,|_||||||||
 z8 | z8 | z8 | z8 | z8 | z4 z2 G2 | A2 c2 B2 c2- | c2 BA G2 A2 | B4 d4- | d4 c4 | z2 A4 G2 | %186
w: |||||ju-|di- ca- re ter-|||* ram,|quo- ni-|
 c4 B4 | A4 z2 G2 | A2 c4 B2- | B2 A4 G2 | c4 B2 c2- | cB A4 G2 | A4 z4 | A6 A2 | G4 G4 | %195
w: am ve-|nit ju-|di- ca- re|_ ter- *|||ram.|Ju- di-|ca- bit|
 c4 c2 c2- | c2 BA B4 | E4 z2 E2- | E2 E2 D2 D2 | G4 E4 | G4 A2 B2- | BcdB c2 B2- | BAGF E2 D2- | %203
w: or- bem ter-|* * * ra-|rum- in-|_ ju- sti- ti-|a, et|po- pu- los|_ _ _ _ _ in|_ _ _ _ _ ae-|
 DEFG E2 D2- | D2 G4 F2- | F2 E4 D2 | E8 | z8 | z8 | c6 c2 | B4 A4 | G8 | A8 | G4 F4 | E6 E2 | %215
w: * * * * * qui-|* ta- *||te,|||in ju-|sti- ti-|a,|et|po- pu-|los in|
 E4 E4 | D4 A4- | A2 B2 c4 | B4 A4- | A4 G4- | G2 F2 E4 | D4 G4 | A4 B2 c2- | cA c4 BA | %224
w: ae- qui-|ta- *|||||te, in|ae- qui- ta-||
 G3 F ED F2- | F2 E2 A4 | G8 | z8 | z8 | z8 | z8 | z8 | z4 B4 | B2 B2 c4 | B2 B2 A2 A2 | %235
w: ||te.||||||Glo-|ri- a Pa-|tri, et Fi- li-|
 G4 z2 A2- | A2 A2 A2 A2 | B2 A3 GFE | F2 E3 FGA | B2 A4 G2 | A8 | z4 B4- | B2 B2 B4 | B4 B4 | %244
w: o, et|_ Spi- ri- tu-|i San- * * *|||cto.|Si-|* cut e-|rat in|
 B2 B4 B2 | B8 | A4 c4- | c2 B2 A4 | G4 z2 A2- | A2 A2 A2 A2 | A4 A4- | A2 A2 A4 | E4 G4 | F8 | %254
w: prin- ci- pi-|o,|et nunc|_ et sem-|per, et|_ in sae- cu-|la sae-|* cu- lo-|rum. _|A-|
 E8- | E8- | E8 |] %257
w: men.|_||
V:2
 z4 e4- | e4 c4 | d4 e4- | e2 e2 e2 c2 | d2 f4 e2- | e2 d2 e2 A2- | A2 A2 c2 d2 | e2 c2 d2 e2- | %8
w: Can-|* ta-|te Do-|* mi- no can-|ti- cum no-|* * um: qui-|* a mi- ra-|bi- li- a fe-|
 e2 dc B4 | A6 GF | E4 z4 | z8 | z8 | z8 | z8 | z8 | z8 | z4 z2 e2- | e2 e2 d2 B2 | c3 d e2 e2- | %20
w: ||cit,|||||||qui-|* a mi- ra-|bi- li- a fe-|
 e2 e2 d2 B2 | c3 d e2 e2 | c4 z4 | e4 e2 e2 | g4 f2 e2- | e2 d2 e4 | f4 e4 | z2 e2 e2 e2 | %28
w: * cit, mi- ra-|bi- li- a fe-|cit.|Sal- va- vit|si- bi dex-|* te- ra|e- ius,|et bra- chi-|
 d2 g4 f2- | f2 e4 d2 | e4 z2 e2 | g2 g2 f4 | e4 d2 e2 | f4 e4 | E4 z4 | A4 B2 G2 | A2 c4 d2 | %37
w: um san- ctum|_ e- *|ius: et|bra- chi- um|san- * ctum|e- *|ius,|et bra- chi-|um san- tum|
 e4 e4 | c6 c2 | c4 B4 | d4 d4 | e8 | e6 e2 | e4 e4 | d4 d4 | e8 | e4 e4 | f4 e4 | d8- | d8 | %50
w: e- ius.|No- tum|fe- cit|Do- mi-|nus,|No- tum|fe- cit|Do- mi-|nus|sa- lu-|ta- re|su-||
 c4 e4 | e2 g3 f d2- | de f4 ed | c3 d e2 c2 | d2 e3 de/d/c/B/ | A4 z4 | A6 A2 | e4 e2 g2- | %58
w: um: in|con- spe- ctu Gen-|||* ti- * * * * *|um,|in con-|spe- tu gen-|
 g2 f2 d4 | a6 a2 | g4 e2 e2 | f4 g2 a2- | agfe f4 | e8 | z4 z2 e2- | e2 d2 e4 | e2 e4 c2 | %67
w: * ti- um|re- ve-|la- vit iu-|sti- ti- am|_ _ _ _ su-|am.|Re-|* cor- da-|tus est mi-|
 c2 c2 d2 e2 | A2 e2 d2 e2- | e2 dc BA B2 | ABcd e2 f2- | f2 e2 f4 | e4 z2 e2 | d2 e4 c2- | %74
w: se- ri- cor- di-|ae su- * *||||ae, mi-|se- ri- cor-|
 cd e2 d4 | d2 A2 B2 G2 | A2 F2 G4 | z2 G2 d2 d2 | d4 e4 | d4 B2 c2- | cd e3 d d2- | d2 c2 d4 | %82
w: |di- * ae _|su- * ae,|et ve- ri-|ta- tis|su- ae do-|* mu- i _ Is-|* * ra-|
 B8 | z8 | z8 | c4 c2 c2 | d4 e4 | c3 d e2 f2- | f2 e4 d2 | e4 z2 e2- | e2 e2 e2 e2 | d4 c2 d2- | %92
w: el.|||Vi- de- runt|o- mnes|ter- mi- ni ter-||rae: sa-|* lu- ta- re|De- i, no-|
 dc c4 B2 | c8 | z8 | z8 | z8 | z8 | z8 | z8 | z8 | z8 | z4 c4 | d2 d2 e4 | f4 e4 | z2 c2 g3 f | %106
w: |stri.|||||||||Psal-|li- te Do-|mi- no|in ci- tha-|
 e4 z2 d2 | g4 f4 | e4 z2 a2- | a2 g2 e2 f2- | fe e3 c d2 | e2 c2 d2 e2 | c2 d3 c c2- | %113
w: ra, in|ci- tha-|ra, et|_ vo- ce psal-||mi: in tu- bis|duc- ti- li- bus|
 cA B2 c2 A2 | B2 c2 A2 B2- | BA A4 G2 | A2 e2 f3 d | e2 f4 e2- | e2 d2 e4 | z2 A3 Bcd | %120
w: _ et vo- ce tu-|bae cor- ne- ae,|_ et vo- ce|tu- bae cor- *|* ne- *|* * ae,|cor- * * *|
 ef g2 c2 d2 | e4 e4 | z2 e4 e2 | e4 e4 | e6 e2 | e4 c2 d2- | d2 e3 d c2- | c2 BA B2 B2 | c4 e4- | %129
w: |ne- ae.|Ju- bi-|la- te|in con-|spe- ctu re-|* gis _ Do-|* * * * mi-|ni: mo-|
 e2 d2 c2 B2 | A4 G4- | G2 FE F4 | G4 d4- | d2 c2 B2 A2 | G4 d4 | e4 d2 g2- |"^#" g2 fe f4 | g8 | %138
w: * ve- a- tur|ma- *||re, et|_ ple- ni- tu-|do e-|||ius:|
 e8 | e4 e4 | f8 | e8 | g6 g2 | g4 g4 | e4 d2 g2- |"^#" g2 fe f4 | g2 g4 g2 | f2 d2 e3 f | g4 c4 | %149
w: or-|bis ter-|ra-|rum,|et qui|ha- bi-|tant in e-||o, et qui|ha- bi- tant in|e- o,|
 d2 c3 d e2- | eA e4 d2 | e8 || e6 e2 | d4 f4- | f4 e4 | d6 cB | A4 z2 A2- | A2 A2 c4 | B4 A4- | %159
w: in e- * *||o.|Flu- mi-|na plau-|* dent|ma- * *|nu, si-|* mul mon-|tes ex-|
 A2 A2 c3 d | e4 z2 e2- | e2 d2 e2 c2 | d2 e2 A2 e2- | e2 d2 e2 f2 | e2 c2 d2 e2 | %165
w: * sul- ta- *|bunt a|_ con- spe- ctu|Do- mi- ni: quo-|* ni- am ve-|nit ju- di- ca-|
 f2 e3 de/d/c/B/ | A4 e4- | e4 z4 | z8 | z8 | z8 | z8 | z8 | z8 | z8 | z8 | z8 | z8 | z8 | z8 | %180
w: re ter- * * * * *|* ram,|_|||||||||||||
 z8 | e4 e2 e2- | e2 dc B2 A2- | A2 G2 F2 E2- | E2 D2 E2 e2- | e2 c2 d2 e2 | A4 e4- | %187
w: |ju- di- ca-|* * * re ter-||* * ram, quo-|* ni- am ve-|nit ju-|
 e2 e2 f2 e2- | e2 e4 e2 | c3 d e4 | A2 e4 e2 | f2 e3 d e2 | c2 d2 e2 f2- | fe e4 d2 | e8- | e8- | %196
w: * di- ca- re|_ ter- ram,|ter- * *|ram, ju- di-|ca- * * *|re ter- * *||ram.|_|
 e8 | z8 | z8 | z8 | z8 | z8 | z8 | z8 | z8 | z4 A4- | A2 B2 c2 d2 | e2 f2 g4 | d4 f4- | %209
w: |||||||||Ju-|* di- ca- bit|or- bem ter-|rae in|
 f2 e2 c2 g2- | gf e4 d2 | e4 z4 | e8 | e4 c4 | c6 c2 | c4 c4 | A6 B2 | c2 d2 e4- | e2 d2 c2 BA | %219
w: _ ju- sti- *|* * * ti-|a,|et|po- pu-|los in|ae- qui-|ta- te,|in ae- qui-|* * ta- * *|
 e6 dc | B4 c4 | B4 e4 | c2 d4 e2 | f2 e4 dc | B3 A B2 c2- | cB e4 d2 | e4 z4 | z8 | z8 | z8 | z8 | %231
w: ||te, in|_ ae- qui-|ta- * * *|||te.|||||
 z8 | z8 | z4 e4 | e2 e2 f4 | e2 e2 d2 d2 | c4 z2 d2- | d2 d2 d2 d2 | A3 B cd e2- | e2 dc BA B2 | %240
w: ||Glo-|ri- a Pa-|tri, et Fi- li-|o, et|_ Spi- ri- tu-|i _ _ _ San-||
 A8 | z4 e4 | e2 g4 e2 | e4 g4 | g4 f2 g2- | g2 d4 g2- | gf f2 e2 f2- | fe e4 d2 | e4 z2 c2- | %249
w: cto.|Si-|cut e- rat|in prin-|ci- pi- o,|_ et nunc|_ _ et _ sem-||per, et|
 c2 c2 f2 f2 | e4 f4- | f2 f2 e4- | e2 d2 c2 B2 | A4 d3 c | BA c2 B4 | A2 c4 BA |"^#" G8 |] %257
w: _ in sae- cu-|la sae-|* cu- lo-||rum. A- *|||men.|
V:3
 z8 | z8 | z8 | z8 | z8 | z8 | z8 | z8 | z8 | z8 | B8 | G4 A4 | B6 B2 | B4 c4 | B2 A4 G2 | F4 E4 | %16
w: ||||||||||Can-|ta- te|Do- mi-|no can-|ti- cum no-|* vum:|
 z2 A4 A2 | G2 E2 F2 G2 |"^#" E2 A4 G2 | A2 c6 | B2 c2 A2 G2 | A4 B4 | A8 | z8 | z8 | z8 | z4 G4 | %27
w: qui- a|mi- ra- bi- li-|a fe- *|cit mi-|ra- bi- li- a|fe- *|cit.||||Sal-|
 c2 c2 B4 | A2 c4 B2 | G4 A4 | B4 z2 G2 | G2 G2 A2 B2- | BA A4 G2 | A3 B c2 B2- | BAGF E2 e2- | %35
w: va- vit si-|bi dex- te-|ra e-|ius: et|bra- chi- um san-||ctum _ _ e-|* * * * us, et|
 e2 d2 e2 c2 | d2 e2 A4 | B4 A4 | z2 A4 A2 | A4 G4 | A4 B4 | c8 | c6 c2 | c4 B4 | A4 G4 | G4 A4- | %46
w: _ bra- chi- um|san- ctum e-|* ius.|No- tum|fe- cit|Do- mi-|nus,|No- tum|fe- cit|Do- mi-|nus sa-|
 A4 G4 | F4 G4 | A4 A4 | D6 D2 | A4 A2 c2- | c2 B2 G4 | d6 d2 | c4 A4 | B6 c2- | c2 d2 B2 c2- | %56
w: * lu-|ta- re|su- um:|in con-|spe- ctu Gen-|* ti- um|re- ve-|la- vit|ju- sti-|* ti- am su-|
 cB e2 d2 c2- | c2 BA G4 | z2 A2 B2 A2- | A2 d3 cAB | c2 B4 G2 | d4 e4 | d3 c BA A2- | %63
w: |* * * am,|re- ve- la-|* vit _ _ _|_ _ iu-|sti- ti-|am _ _ _ _|
"^#" A2 GF G2 A2- | AE A4 G2 | A4 B4 | A8 | z8 | z8 | z8 | z2 c4 A2 | B4 c4 | B4 G4 | G2 G2 A4 | %74
w: _ _ _ _ _|* * su- *||am.||||Re- cor-|da- tus|est mi-|se- ri- cor-|
 c4 B2 A2- | A2 d3 c c2- | c2 B2 c4 | z2 B2 B2 B2 | B4 c4 | A4 G4 | c6 A2 | B2 G2 A4 | G4 z2 G2- | %83
w: di- ae su-||* * ae,|et ve- ri-|ta- tis|su- ae|do- mu-|i Is- ra-|el. Vi-|
 G2 G2 G2 A2- | A2 B4 G2- | G2 A2 G2 A2- | A2 B4 G2- | G2 A2 B2 c2- | cB B4 A2 | B2 c4 c2 | %90
w: * de- runt o-|* mnes ter-|* mi- ni ter-|* rae: sa-|* lu- ta- *|* * re De-|i, sa- lu-|
 c2 c2 B4 | A4 G2 A2- | AG G4 F2 | G4 z2 G2 | A2 A2 B2 c2- | c2 BA G2 A2 | E2 e4 c2 | d2 e2 A4 | %98
w: ta- re De-|i no- *||stri. Ju-|bi- la- te De-|* * * o o-|mnis ter- *|* * ra:|
 z2 e4 e2 | d2 c2 d2 e2 | c2 d4 G2- | G2 A2 B2 c2- | cB AG A4 | G8 | z4 G4 | A2 A2 B4 | c4 B4 | %107
w: can- ta-|e, et ex- sul|ta- te, et|_ psal- * *|* * * * li-|te.|Psal-|li- te Do-|mi- no|
 z2 G2 d3 c | B2 e2 e2 d2 | e4 z2 c2 | B2 G2 A4 | G2 E2 F2 G2 | A4 G2 E2 | F3 G A2 E2 | %114
w: in ci- tha-|ra, in ci- tha-|ra, et|vo- ce psal-|mi, et vo- ce|psal- mi: in|tu- bis duc- ti-|
 E2 E2 F2 F2 | E2 F2 D4 | E2 A2 d2 d2 | c2 A2 B2 B2 | A4 z2 A2 | d2 d2 c2 A2 | B2 G2 A4 | B4 A4 | %122
w: li- bus, et vo-|ce tu- bae,|et vo- ce tu-|bae cor- * ne-|ae, et|vo- ce tu- bae|cor- * *|ne- ae.|
 z2 A2 A2 A2 | A8 | G6 G2 | G4 A4 | B4 G2 A2- | AGFE F4 | G8 | G6 F2 | E4 D4- | D4 C4 | D8 | %133
w: Ju- bi- la-|te|in con-|spe- ctu|re- gis Do-|* * * * mi-|ni:|mo- ve-|a- tur|_ ma-|re,|
 z4 d4 | B4 B4 | c4 d2 e2- | edcB c4 | d8 | z4 c4 | c4 c4 | c8 | c8 | e4 e2 e2 | e4 d4 | %144
w: et|ple- ni-|tu- do e-||ius:|or-|bis ter-|ra-|rum,|et qui ha-|bi- tant|
 c4 d2 e2- | edcB c4 | d4 G4 | A2 B4 c2 | d2 e4 dc | B2 A4 G2 | A2 B4 A2 | B8 || z8 | z8 | z8 | %155
w: in e- *||o, et|qui ha- bi-|* tant in _|e- * *||o.||||
 z8 | z8 | z8 | z8 | z8 | z8 | z8 | z8 | z8 | z8 | z8 | z8 | z4 B4- | B2 B2 A4 | c8 | B4 A4- | %171
w: ||||||||||||Flu-|* mi- na|plau-|dent ma-|
 A2 GF E4 | z2 E4 E2 | G4 F4 | E6 E2 | G3 A B4 | z2 B4 A2 | B2 G2 A2 B2 | E2 B4 A2 | B2 c2 B2 G2 | %180
w: * * * nu,|si- mul|mon- tes|ex- sul-|ta- * bunt|a con-|spe- ctu Do- mi-|ni: quo- ni-|am ve- nit ju-|
 A2 c2 B2 c2- | c2 BA G2 A2 | E2 e4 d2- | d2 c2 B2 A2- | A2 G2 A4 | E4 z4 | z2 A4 G2 | c4 B4 | %188
w: di- ca- re ter-||ram, ter- *||* * ram,|_|quo- ni-|am ve-|
 A4 z2 G2 | A2 c4 B2- | B2 A4 G2 | c4 B4 | A4 B2 c2- | cB AG A4 | B4 z4 | A6 A2 | G4 G4 | %197
w: nit,- quo-|ni- am ve-|* nit ju-|di- ca-|re ter- *||ram.|Ju- di-|ca- bit|
 c4 c2 c2- | c2 BA B4 | E4 z2 E2- | E2 E2 D2 D2 | G4 E4 | G4 A2 B2- | BcdB c2 B2- | BAGF E2 D2 | %205
w: or- bem ter-|* * * ra-|rum in|_ ju- sti- ti-|a, et|po- pu- los|_ _ _ _ _ in|_ _ _ _ ae- qui-|
 E2 G2 F4 | E8 | z8 | z8 | z8 | z8 | z8 | c8 | B4 A4 | G6 G2 | G4 G4 | F8 | E8- | E8 | z8 | z8 | %221
w: ta- * *|te.||||||Et|po- pu-|los in|ae- qui-|ta-|te|_|||
 z8 | z8 | z8 | z8 | z8 | B4 B2 B2 | c4 B2 B2 | A2 A2 G4 | z2 A4 A2 | A2 A2 B2 A2- | AGFE F2 E2- | %232
w: |||||Glo- ri- a|Pa- tri, et|Fi- li- o,|et Spi-|ri- tu- i San-||
 EFGA Bc A2- |"^#" A2 G2 A4 | z8 | z8 | z8 | z8 | z8 | z8 | z4 E4 | E2 G4 FE | B2 E2 E2 G2- | %243
w: |* * cto.|||||||Si-|cut e- * *|* rat in prin-|
 G2 E2 E3 F | GABc d2 e2- | ed B3 c d2- | dc A3 B c2- | cB G2 A4 | B4 z2 A2- | A2 A2 d2 d2 | %250
w: * * ci- *|* * * * * pi-|* * o, et nunc|_ _ _ et sem-||per, et|_ in sae- cu-|
 c4 d4 | A4 c4- | c2 d2 e4 | d3 c BA A2- |"^#""^#""^#" A2 GF G4 | A8 | B8 |] %257
w: la sae-|cu- lo-|* * rum.|A- * * * *|||men.|
V:4
 z8 | z8 | z8 | z8 | z8 | z8 | z8 | z8 | z8 | z8 | z4 E,4- | E,4 C,4 | D,4 E,4- | E,2 E,2 E,2 C,2 | %14
w: ||||||||||Can-|* ta-|te Do-|* mi- no can-|
 D,2 F,4 E,2- | E,2 D,2 E,2 A,,2- | A,,2 A,,2 C,2 D,2 | E,2 C,2 D,2 E,2- | E,2 D,C, B,,4 | %19
w: ti- cum no-|* * vum: qui-|* a mi- ra-|bi- li- a fe-||
 A,,2 A,,4 A,,2 | E,2 C,2 D,2 E,2 | A,,4 E,4 | A,,8 | z8 | z8 | z8 | z4 E,4 | E,2 E,2 G,4 | %28
w: cit, qui- a|mi- ra- bi- li-|a fe-|cit.||||Sal-|va- vit si-|
 F,2 E,4 D,2 | E,4 F,4 | E,4 z2 E,2 | E,2 E,2 D,2 G,2- | G,2 F,4 E,2- | E,2 D,2 E,4 | %34
w: bi dex- te-|ra e-|ius: et|bra- chi- um san-|* ctum e-|* * us,|
 z2 E,2 G,2 G,2 | F,4 E,4 | D,2 C,2 F,4 | E,4 A,,4 | z2 A,,4 A,,2 | A,,4 E,4 | F,4 G,4 | C,8 | %42
w: et bra- chi-|um san-|ctum e- *|* ius.|No- tum|fe- cit|Do- mi-|nus,|
 A,,6 A,,2 | A,,4 E,4 | F,4 G,4 | C,4 A,,4- | A,,4 C,4 | D,4 E,4 | F,4 D,4 | A,8 | A,,6 A,,2 | %51
w: No- tum|fe- cit|Do- mi-|nus sa-|* lu-|ta- re-|su- *|um:|in con-|
 E,4 E,2 G,2- | G,2 F,2 D,4 | A,6 A,2 | A,4 E,2 E,2 | F,4 G,2 A,2- | A,G,F,E, F,4 | E,8 | %58
w: spe- ctu Gen-|* ti- um|re- ve-|la- vit ju-|sti- ti- am|_ _ _ _ su-|am,|
 z4 z2 F,2- | F,E,D,C, D,4 | C,8 | D,4 C,4 | D,8 | E,6 A,,2 | C,3 D, E,4 | F,4 E,4 | A,,8 | z8 | %68
w: ju-|* * * * sti-|ti-|am _|_|su- *|||am.||
 z8 | z8 | z2 A,4 F,2 | G,4 A,4 | E,8 | z4 C,4 | C,2 C,2 D,4 | F,4 E,4 |"^#" D,4 C,4 | %77
w: ||Re- cor-|da- tus|est|mi-|se- ri- cor-|di- ae|su- ae,|
 G,4 G,2 G,2 | G,4 C,4 | D,4 E,4 | C,3 D, E,2 E,2 | G,2 E,2 D,4 | E,8 | C,4 C,2 C,2 | D,4 E,4 | %85
w: et ve- ri-|ta- tis|su- ae|do- mu- i Is-|* * ra-|el.|Vi- de- runt|o- mnes|
 C,3 D, E,2 F,2- | F,2 G,4 E,2- | E,2 F,2 G,2 A,2- | A,G, F,E, F,4 | E,2 A,4 A,2 | A,2 A,2 G,4 | %91
w: ter- mi- ni ter-|* rae: sa-|* lu- ta- *|* * re _ De-|i, sa- lu-|ta- re De-|
 F,4 E,2 F,2- | F,E, C,2 D,4 | C,8 | z8 | z8 | z8 |"^#" z8 | z8 | z8 | z8 | z8 | z8 | z4 C,4 | %104
w: i no- *||stri.||||||||||Psal-|
 D,2 D,2 E,4 | F,4 E,4 | z2 C,2 G,3 F, | E,4 z2 D,2 | G,4 F,4 | E,4 A,4 | G,2 E,2 F,4 | %111
w: li- te Do-|mi- no|in ci- tha-|ra, in|ci- tha-|ra, et|vo- cr pal-|
 C,4 z2 C,2 | F,4 E,2 C,2 | D,2 D,2 A,,4 | z2 A,,2 D,2 D,2 | C,2 A,,2 B,,2 B,,2 | A,,4 z2 D,2 | %117
w: mi: in|tu- bis duc-|ti- li- bus,|et vo- ce|tu- bae cor- ne-|ae, et|
 A,2 A,2 G,2 E,2 | F,2 F,2 E,4 | z2 D,2 A,2 A,2 | G,2 E,2 F,4 | E,4 A,,4 | z2 A,,4 A,,2 | %123
w: vo- ce tu- bae|cor- ne- ae,|et vo- ce|tu- bae cor-|ne- ae.|Ju- bi-|
 A,,4 A,,4 | E,6 E,2 | E,4 F,4 | G,4 C,4 | D,4 D,4 | C,8 | E,6 D,2 | C,4 B,,4 | A,,8 | G,,8 | G,8 | %134
w: la- te|in con-|spe- ctu|re- gi|Do- mi-|ni:|mo- ve-|a- tur|ma-|re,|et|
 G,4 G,4 | C,4 G,4 | A,8 | G,8 | C,8 | C,4 C,4 | F,8 | C,8 | C,6 C,2 | C,4 G,4 | A,4 B,2 C2- | %145
w: ple- ni-|tu- do|e-|ius:|or-|bis ter-|ra-|rum,|et qui|ha- bi-|tant in e-|
 CB,A,G, A,4 |"^SECUNDA\nPARS" G,4 E,4 | D,2 G,4 A,2 | B,2 C4 B,A, | G,2 A,2 E,4 | F,2 E,2 F,4 | %151
w: |o, et|qui ha- bi-|* tant in _|e- * *||
 E,8 || z8 | z8 | z8 | z8 | z8 | z8 | z8 | z8 | z8 | z8 | z8 | z8 | z8 | z8 | z8 | E,6 E,2 | %168
w: o.||||||||||||||||Flu- mi-|
 D,4 F,4- | F,4 E,4 | D,6 C,B,, | A,,4 z2 A,,2- | A,,2 A,,2 C,4 | B,,4 A,,4- | A,,2 A,,2 C,3 D, | %175
w: na plau-|* dent|ma- * *|nu, si-|* mul mon-|tes ex-|* sul- ta- *|
 E,4 z2 E,2- | E,2 D,2 E,2 C,2 | D,2 E,2 A,,2 E,2- | E,2 D,2 E,2 F,2 | E,2 C,2 D,2 E,2 | %180
w: bunt a|_ con- spe- ctu|Do- mi- ni: quo-|* ni- am ve-|nit ju- di- ca-|
 F,2 E,3 D,E,/D,/C,/B,,/ | A,,4 z2 A,,2- | A,,B,,C,D, E,2 F,2- | F,2 E,2 D,2 C,2 | B,,4 A,,4- | %185
w: re ter- * * * * *|ram, ter-|||* ram,,|
 A,,4 z4 | z4 z2 E,2- | E,2 C,2 D,2 E,2 | A,,4 E,2 E,2 | F,4 E,4 | C,3 D, E,4 | A,,4 E,4 | %192
w: _|quo-|* ni- am ve-|nit- ju- di-|ca- re|ter- * *|ram, ter-|
 F,4 G,2 A,2- | A,G,F,E, F,4 | E,8 | A,,8 | E,8 | z8 | z8 | z8 | z8 | z8 | z8 | z8 | z8 | z8 | %206
w: ||||am.||||||||||
 A,,6 B,,2 | C,2 D,2 E,2 F,2 | G,4 D,4 | A,6 E,2 | G,4 F,4 | E,4 z4 | A,,8 | E,4 F,4 | C,6 C,2 | %215
w: Ju- di-|ca- bit or- bem|ter- rae|in ju-|sti- ti-|a,|Et|po- pu-|los in|
 C,4 C,4 | D,8 | A,,8 | G,,4 A,,4 | C,6 D,2 | E,4 C,4 | G,4 C,4 | F,3 E, D,2 C,2 | %223
w: ae- qui-|ta-|te,|in _|ae- qui-|ta- *|||
 D,2 A,,2 C,2 D,2 | E,3 F, G,2 A,2- | A,E, G,2 F,4 | E,4 z4 | E,4 E,2 E,2 | F,4 E,2 E,2 | %229
w: |||te.|Glo- ri- a|Pa- tri, et|
 D,2 D,2 C,4 | z2 D,4 D,2 | D,2 D,2 A,,3 B,, | C,D, E,4 D,C, | B,,A,, B,,2 A,,4 | z8 | z8 | z8 | %237
w: Fi- li- o,|et Spi-|ri- tu- i _|_ _ San- * *|* * * cto.||||
 z8 | z8 | z8 | A,,4 A,,2 C,2- | C,2 B,,A,, E,4 | z4 E,4 | E,2 G,4 E,2 | E,4 z2 G,2 | G,2 G,2 G,4 | %246
w: |||Si- cut e-|* * * rat|in|prin- ci- pi-|o, et|nunc et sem-|
 D,4 A,4 | A,2 E,2 F,4 | E,4 z2 F,2- | F,2 F,2 D,2 D,2 | A,4 D,4- | D,2 D,2 A,,4 | C,8 | D,8 | %254
w: per, et|nunc et sem-|per, et|_ in sae- cu-|la sae-|* cu- lo-|rum.|A-|
 E,8 | A,,8 | E,8 |] %257
w: ||men.|

